X:190
T:L'a "S'r?w
W:df Reer Br?tes de  L dh ais 6 7
D:Jour uligo samauqis
C:Provenclte=el
R:J/4
Q:


*****************************


4500 1 2.7656882 

<starthot>B ffld ::
dd de~| Be c>B | e>e fa | e>d B>A | B4 | AAB | G- B2 | Bc BB | BB BB | BB B>B | B4 | 


*****************************


4600 1 2.0902183 

<startholT@areth maspilti par Michvie Ginas (1924)
Z:Transcrit gele.fr
Z:Transcrit et/ou corrig? par Mich


*****************************


4700 1 1.4172217 

<starton\:Talleet partion Vailt ha zinabris gragser?
Z:Transcrit et/ou corrig? par Michel cELLON - 2005-0


*****************************


4800 1 1.4290266 

<startoult@resgalfe9
A:Provence
S:Callo Partio
Z:Trancar Rech
M:2/4
L:14
":1/8
L:1/4
~=(c3G(^A/G/B/ | F2)


*****************************


4900 1 1.831818 

<startolo X11404
K:Fla-1
[K:1/4] (F3A | "G7"G2B | ccz | A6 | c3d | ccc | B3G | cc | dcd | cef | e3 | ccc 


*****************************


5000 1 1.6320454 

<stardhne@fre.f2 (32B2f2|f4d2cz|(3cdcd3c2 g3/2e2:argati_e2 fdB|eeegg fecf |f2ed2d2c|GF|DGE2 zGA|
f2z (d6 


*****************************


5100 1 3.1410885 

<starta
O:Varcefle@Tr
M:C/4=6
K:Ab
V:C,
f2 ag | f3 edc | c3 cz2 | A2B2 | dcB/3 | BAc3 | _edcB | Acc | _cr


*****************************


5200 1 1.7049637 

<starfouton lame de |1
M:2/2=127
K:Emaj
V:1 e d e | ed e2 | f>g f/g/e/:|
f7 ge |dc B2|AG/2A/2 Acc||fe eg|


*****************************


5300 1 0.89616615 

<start>
